X:1
T:Title
%%score 1 2 ( 3 4 5 )
L:1/8
Q:1/4=90
M:6/8
K:A
V:1 treble nm="Grand Piano"
V:2 bass nm="Grand Piano, Melody"
V:3 bass nm="Grand Piano"
V:4 bass 
V:5 bass 
V:1
 z3 A3 | c2 c cBA | E2 E EFG | A2 A ABc | B2 B BcB | c2 c cBA | E2 E EFG | ABc dcB | c3- c2 A | %9
 A2 A ABc | F2 F FGA | E2 E EFA | B2 B BcB | c2 c cBA | E2 E EFG | ABc dcB | c3- c2 A | A2 A ABc | %18
 F2 F FGA | E2 E EFA | B2 B BcB | c2 c cBA | E2 E EFG | ABc dcB | c6 |] %25
V:2
 z3 E,3 | A,2 A, A,G,A, | B,2 B, B,A,B, | C2 C CB,A, | E,2 E, E,C,E, | A,2 A, A,G,A, | %6
 B,2 B, B,A,B, | CB,A, B,A,G, | A,3- A,2[K:treble] C | E2 E ECA, | C2 C C[K:bass]B,A, | %11
 G,A,B, B,2 C | E,2 E, E,C,E, | A,2 A, A,G,A, | B,2 B, B,A,B, | CB,A, B,A,G, | %16
 A,3- A,2[K:treble] C | E2 E ECA, | C2 C C[K:bass]B,A, | G,A,B, B,2 C | E,2 E, E,C,E, | %21
 A,2 A, A,G,A, | B,2 B, B,A,B, | CB,A, B,A,G, | A,6 |] %25
V:3
 z3 A,,3 | A,,2 A,, A,,B,,D, | E,2 E, E,2 E, | F,2 F, F,G,A, | E,2 E, E,2 E, | A,,2 A,, A,,B,,D, | %6
 E,2 E, E,2 E, | A,2 C, D,2 E, | A,,3- A,,2 A,, | E,2 E, E,C,A,, | F,2 F, F,G,A, | E,2 E, E,2 F, | %12
 B,,2 B,, B,,A,,B,, | A,,2 A,, A,,B,,D, | E,2 E, E,2 E, | A,2 C, D,2 E, | A,,6 | E,2 E, .E,3 | %18
 F,2 F, .F,3 | E,2 E, .E,3 | B,,2 B,, .B,,3 | A,,2 A,, .A,,3 | E,2 E, .E,2 E, | A,3 D,3 | z6 |] %25
V:4
 x6 | x6 | x6 | x6 | x6 | x6 | x6 | x6 | x6 | x6 | x6 | x6 | x6 | x6 | x6 | x6 | z3 z2 A,,- | %17
 A,,3 z C,2 | z3 z G,2 | z3 z2 F,- | F,3 z A,,2 | z3 z B,,2 | x6 | x6 | A,,6 |] %25
V:5
 x6 | x6 | x6 | x6 | x6 | x6 | x6 | x6 | x6 | x6 | x6 | x6 | x6 | x6 | x6 | x6 | x6 | z3 z2 A,,- | %18
 A,,3 z2 A,- | A,3 z3 | z3 z2 B,,- | B,,3 z2 D,- | D,3 z3 | z2 C,- C, z E,- | E,3 z3 |] %25

